build/img/icons/calendar.svg

<svg width="18" height="18" viewBox="0 0 18 18" fill="none" xmlns="http://www.w3.org/2000/svg">
<path fill-rule="evenodd" clip-rule="evenodd" d="M16.5 1.68518H14.0601V0.56006C14.0601 0.411522 14.001 0.269067 13.896 0.164035C13.791 0.0590029 13.6485 0 13.5 0C13.3515 0 13.209 0.0590029 13.104 0.164035C12.999 0.269067 12.9399 0.411522 12.9399 0.56006V1.68518H9.56006V0.56006C9.56006 0.411522 9.50102 0.269067 9.396 0.164035C9.29098 0.0590029 9.14852 0 9 0C8.85148 0 8.70902 0.0590029 8.604 0.164035C8.49898 0.269067 8.43994 0.411522 8.43994 0.56006V1.68518H5.06006V0.56006C5.06006 0.411522 5.00102 0.269067 4.896 0.164035C4.79098 0.0590029 4.64852 0 4.5 0C4.35148 0 4.20902 0.0590029 4.104 0.164035C3.99898 0.269067 3.93994 0.411522 3.93994 0.56006V1.68518H1.5C1.10218 1.68518 0.720758 1.84324 0.439453 2.12458C0.158149 2.40592 0 2.78748 0 3.18535V16.4998C0 16.8977 0.158149 17.2793 0.439453 17.5606C0.720758 17.8419 1.10218 18 1.5 18H16.5C16.8978 18 17.2792 17.8419 17.5605 17.5606C17.8419 17.2793 18 16.8977 18 16.4998V3.18535C18 2.78748 17.8419 2.40592 17.5605 2.12458C17.2792 1.84324 16.8978 1.68518 16.5 1.68518ZM16.8701 16.4998C16.8709 16.5489 16.862 16.5976 16.8438 16.6431C16.8255 16.6887 16.7981 16.7301 16.7637 16.765C16.7292 16.8 16.6883 16.8276 16.6431 16.8465C16.5978 16.8654 16.5491 16.875 16.5 16.8749H1.5C1.39992 16.8754 1.30366 16.8362 1.23242 16.7659C1.16119 16.6956 1.12091 16.5999 1.12012 16.4998V3.18535C1.12091 3.08526 1.16119 2.98958 1.23242 2.91927C1.30366 2.84896 1.39992 2.80978 1.5 2.81031H3.93994V3.93543C3.93994 4.08397 3.99898 4.22643 4.104 4.33146C4.20902 4.43649 4.35148 4.49549 4.5 4.49549C4.64852 4.49549 4.79098 4.43649 4.896 4.33146C5.00102 4.22643 5.06006 4.08397 5.06006 3.93543V2.81031H8.43994V3.93543C8.43994 4.08397 8.49898 4.22643 8.604 4.33146C8.70902 4.43649 8.85148 4.49549 9 4.49549C9.14852 4.49549 9.29098 4.43649 9.396 4.33146C9.50102 4.22643 9.56006 4.08397 9.56006 3.93543V2.81031H12.9399V3.93543C12.9399 4.08397 12.999 4.22643 13.104 4.33146C13.209 4.43649 13.3515 4.49549 13.5 4.49549C13.6485 4.49549 13.791 4.43649 13.896 4.33146C14.001 4.22643 14.0601 4.08397 14.0601 3.93543V2.81031H16.5C16.5491 2.81017 16.5978 2.81982 16.6431 2.83868C16.6883 2.85754 16.7292 2.88523 16.7637 2.92015C16.7981 2.95508 16.8255 2.99652 16.8438 3.04206C16.862 3.08759 16.8709 3.1363 16.8701 3.18535V16.4998ZM3.93994 6.74875H6.18994V8.43594H3.93994V6.74875ZM3.93994 9.56106H6.18994V11.2493H3.93994V9.56106ZM3.93994 12.3744H6.18994V14.0616H3.93994V12.3744ZM7.87012 12.3744H10.1201V14.0616H7.87012V12.3744ZM7.87012 9.56106H10.1201V11.2493H7.87012V9.56106ZM7.87012 6.74875H10.1201V8.43594H7.87012V6.74875ZM11.8101 12.3744H14.0601V14.0616H11.8101V12.3744ZM11.8101 9.56106H14.0601V11.2493H11.8101V9.56106ZM11.8101 6.74875H14.0601V8.43594H11.8101V6.74875Z" fill="#83888A"/>
</svg>

<svg width="18" height="18" fill="none" xmlns="http://www.w3.org/2000/svg"><path fill-rule="evenodd" clip-rule="evenodd" d="M16.5 1.685h-2.44V.56a.56.56 0 00-1.12 0v1.125H9.56V.56a.56.56 0 00-1.12 0v1.125H5.06V.56a.56.56 0 00-1.12 0v1.125H1.5a1.5 1.5 0 00-1.5 1.5V16.5A1.5 1.5 0 001.5 18h15a1.5 1.5 0 001.5-1.5V3.185a1.5 1.5 0 00-1.5-1.5zm.37 14.815a.37.37 0 01-.37.375h-15a.378.378 0 01-.38-.375V3.185a.378.378 0 01.38-.375h2.44v1.125a.56.56 0 001.12 0V2.81h3.38v1.125a.56.56 0 001.12 0V2.81h3.38v1.125a.56.56 0 001.12 0V2.81h2.44a.37.37 0 01.37.375V16.5zM3.94 6.749h2.25v1.687H3.94V6.749zm0 2.812h2.25v1.688H3.94V9.561zm0 2.813h2.25v1.688H3.94v-1.688zm3.93 0h2.25v1.688H7.87v-1.688zm0-2.813h2.25v1.688H7.87V9.561zm0-2.812h2.25v1.687H7.87V6.749zm3.94 5.625h2.25v1.688h-2.25v-1.688zm0-2.813h2.25v1.688h-2.25V9.561zm0-2.812h2.25v1.687h-2.25V6.749z" fill="#83888A"/></svg>
